UI/POI/SVG/nature-overlook_outline_24px.svg

<svg xmlns="http://www.w3.org/2000/svg" width="24" height="24" viewBox="0 0 24 24"><rect width="24" height="24" style="fill:none;opacity:0.11"/><path d="M10,4H6V2h4ZM2,22H8V20H2Zm14,0h6V20H16ZM18,2H14V4h4ZM16.94,8,20,12.6c0,1.35,0,2.51,0,3.4H18l0-2H6v2H4V12.61L7.07,8h9.87M18,6H6L2.34,11.5A2,2,0,0,0,2,12.61V18H8V16h8s0,2,0,2h6s0-3.89,0-5.4a2,2,0,0,0-.33-1.1C20.71,10.07,18,6,18,6Zm-5,4H11v2h2Z"/></svg>

<svg width="24" height="24" viewBox="0 0 24 24" fill="none" xmlns="http://www.w3.org/2000/svg">
<path d="M10 4H6V2H10V4ZM2 22H8V20H2V22ZM16 22H22V20H16V22ZM18 2H14V4H18V2ZM16.94 8L20 12.6C20 13.95 20 15.11 20 16H18V14H6V16H4V12.61L7.07 8H16.94V8ZM18 6H6L2.34 11.5C2.11941 11.8282 2.0011 12.2145 2 12.61V18H8V16H16V18H22C22 18 22 14.11 22 12.6C21.9999 12.209 21.8852 11.8265 21.67 11.5C20.71 10.07 18 6 18 6ZM13 10H11V12H13V10Z" fill="#0F1621"/>
</svg>
